!!!OTL: ?
!! From: "Folk Songs of the Southern Appalachians;
!! As Sung by Jean Ritchie"  2nd Edition.
!! University of Kentucky Press, 1997.
**kern
*clefG2
*k[b-]
*d:
*M4/4
{(8f
8g)
=1
4.a
8g
4.f
8d
=2
8g
8g
4a
4.e}
{8g
=3
4f
4d
4g
4cc
=4
2a}
{2dd
=5
4cc
8a
8g
4f
4d
=6
8e
8e
8g
8g
2a}
=7
{4dd
4dd
8a
8b-
8a
8g
=8
4f
4e
4d}
==
*-
